/* XPM */
static const char *coin[] = {
/* columns rows colors chars-per-pixel */
"64 64 100 2 ",
"   c #2D1203",
".  c #381B03",
"X  c #2A1003",
"o  c #2E1403",
"O  c #361C03",
"+  c #402303",
"@  c #260D03",
"#  c #2A1003",
"$  c #2E1404",
"%  c #2B1104",
"&  c #321903",
"*  c #442703",
"=  c #472B03",
"-  c #4D2B03",
";  c #452603",
":  c #542F03",
">  c #593502",
",  c #573707",
"<  c #643A02",
"1  c #532F03",
"2  c #683E03",
"3  c #533003",
"4  c #6B4502",
"5  c #764902",
"6  c #6C4602",
"7  c #764A02",
"8  c #7E5802",
"9  c #784D02",
"0  c #895F02",
"q  c #875502",
"w  c #7E5002",
"e  c #845702",
"r  c #7C6002",
"t  c #270F04",
"y  c #291004",
"u  c #311604",
"i  c #432703",
"p  c #4C2D02",
"a  c #3E2004",
"s  c #4E300C",
"d  c #593A03",
"f  c #260E03",
"g  c #270F04",
"h  c #452503",
"j  c #402303",
"k  c #5F3E03",
"l  c #814F02",
"z  c #885502",
"x  c #9B6102",
"c  c #935D02",
"v  c #9F6402",
"b  c #8B6802",
"n  c #976B01",
"m  c #9A7801",
"M  c #966902",
"N  c #A76B01",
"B  c #A37801",
"V  c #B87601",
"C  c #C57E01",
"Z  c #A58301",
"A  c #BC8801",
"S  c #BE9D01",
"D  c #B78110",
"F  c #AD903B",
"G  c #C98801",
"H  c #D88A01",
"J  c #C99601",
"K  c #D89701",
"L  c #E99700",
"P  c #F39D00",
"I  c #CAAA00",
"U  c #D3AB01",
"Y  c #E4A500",
"T  c #FDA600",
"R  c #E4BB00",
"E  c #FEBA00",
"W  c #EAC500",
"Q  c #FDC800",
"!  c #FFD501",
"~  c #FFDA14",
"^  c #FFDD26",
"/  c #FEDF33",
"(  c #F1C33A",
")  c #210C04",
"_  c #2A1104",
"`  c #3C2204",
"'  c #230C04",
"]  c #341A04",
"[  c #250E04",
"{  c #351A04",
"}  c #281105",
"|  c #230E04",
" . c #210D04",
".. c #1E0B05",
"X. c #180805",
"o. c #110605",
"O. c None",
"+. c #180A07",
"@. c #0D0507",
"#. c #160807",
/* pixels */
"O.O.O.O.O.O.O.O.O.O.O.O.O.O.O.O.O.O.O.O.O.O.O.O.O.O.O.O.O.O.O.O.O.O.O.O.O.O.O.O.O.O.O.O.O.O.O.O.O.O.O.O.O.O.O.O.O.O.O.O.O.O.O.O.",
"O.O.O.O.O.O.O.O.O.O.O.O.O.O.O.O.O.O.O.O.O.O.O.O.O.O.O.O.O.O.O.O.O.O.O.O.O.O.O.O.O.O.O.O.O.O.O.O.O.O.O.O.O.O.O.O.O.O.O.O.O.O.O.O.",
"O.O.O.O.O.O.O.O.O.O.O.O.O.O.O.O.O.O.O.O.O.O.O.O.O.O.O.O.O.O.O.O.O.O.O.O.O.O.O.O.O.O.O.O.O.O.O.O.O.O.O.O.O.O.O.O.O.O.O.O.O.O.O.O.",
"O.O.O.O.O.O.O.O.O.O.O.O.O.O.O.O.O.O.O.O.O.O.O.O.O.O.O.O.O.O.O.O.O.O.O.O.O.O.O.O.O.O.O.O.O.O.O.O.O.O.O.O.O.O.O.O.O.O.O.O.O.O.O.O.",
"O.O.O.O.O.O.O.O.O.O.O.O.O.O.O.O.O.O.O.O.O.O.O.O.O.O.O.O.O.O.O.O.O.O.O.O.O.O.O.O.O.O.O.O.O.O.O.O.O.O.O.O.O.O.O.O.O.O.O.O.O.O.O.O.",
"O.O.O.O.O.O.O.O.O.O.O.O.O.O.O.O.O.O.O.O.O.O.O.O.O.O.O.O.O.O.O.O.O.O.O.O.O.O.O.O.O.O.O.O.O.O.O.O.O.O.O.O.O.O.O.O.O.O.O.O.O.O.O.O.",
"O.O.O.O.O.O.O.O.O.O.O.O.O.O.O.O.O.O.O.O.O.O.O.O.O.O.O.O.O.O.O.O.O.O.O.O.O.O.O.O.O.O.O.O.O.O.O.O.O.O.O.O.O.O.O.O.O.O.O.O.O.O.O.O.",
"O.O.O.O.O.O.O.O.O.O.O.O.O.O.O.O.O.O.O.O.O.O.O.O.O.O.O.O.O.O.O.O.O.O.O.O.O.O.O.O.O.O.O.O.O.O.O.O.O.O.O.O.O.O.O.O.O.O.O.O.O.O.O.O.",
"O.O.O.O.O.O.O.O.O.O.O.O.O.O.O.O.O.O.O.O.O.O.O.O.O.O.O.O.O.O.O.O.O.O.O.O.O.O.O.O.O.O.O.O.O.O.O.O.O.O.O.O.O.O.O.O.O.O.O.O.O.O.O.O.",
"O.O.O.O.O.O.O.O.O.O.O.O.O.O.O.O.O.O.O.O.O.O.O.O.O.O.O.O.O.O.O.O.O.O.O.O.O.O.O.O.O.O.O.O.O.O.O.O.O.O.O.O.O.O.O.O.O.O.O.O.O.O.O.O.",
"O.O.O.O.O.O.O.O.O.O.O.O.O.O.O.O.O.O.O.O.O.O.O.O.O.O.O.O.O.O.O.O.O.O.O.O.O.O.O.O.O.O.O.O.O.O.O.O.O.O.O.O.O.O.O.O.O.O.O.O.O.O.O.O.",
"O.O.O.O.O.O.O.O.O.O.O.O.O.O.O.O.O.O.O.O.O.O.O.O.O.O.O.O.O.O.O.O.O.O.O.O.O.O.O.O.O.O.O.O.O.O.O.O.O.O.O.O.O.O.O.O.O.O.O.O.O.O.O.O.",
"O.O.O.O.O.O.O.O.O.O.O.O.O.O.O.O.O.O.O.O.O.O.O.O.O.O.O.O.O.O.O.O.O.O.O.O.O.O.O.O.O.O.O.O.O.O.O.O.O.O.O.O.O.O.O.O.O.O.O.O.O.O.O.O.",
"O.O.O.O.O.O.O.O.O.O.O.O.O.O.O.O.O.O.O.O.O.O.O.O.O.O... . .o.O.O.O.O.O.O.O.O.O.O.O.O.O.O.O.O.O.O.O.O.O.O.O.O.O.O.O.O.O.O.O.O.O.O.",
"O.O.O.O.O.O.O.O.O.O.O.O.O.O.O.O.O.O.O.O.O.O.O.O.O.O.g o #  .O.O.O.O.O.O.O.O.O.O.O.O.O.O.O.O.O.O.O.O.O.O.O.O.O.O.O.O.O.O.O.O.O.O.",
"O.O.O.O.O.O.O.O.O.O.O.O.O.O.O.O.O.O.O.O.O.O.O.O.o.g w D F s [ O.O.O.O.O.O.O.O.O.O.O.O.O.O.O.O.O.O.O.O.O.O.O.O.O.O.O.O.O.O.O.O.O.",
"O.O.O.O.O.O.O.O.O.O.O.O.O.O.O.O.O.O.O.O.O.O.O.O.X.% N E ( > g O.O.O.O.O.O.O.O.O.O.O.O.O.O.O.O.O.O.O.O.O.O.O.O.O.O.O.O.O.O.O.O.O.",
"O.O.O.O.O.O.O.O.O.O.O.O.O.O.O.O.O.O.O.O.O.O.O.O.X.y c K G 1 ) O.O.O.O.O.O.O.O.O.O.O.O.O.O.O.O.O.O.O.O.O.O.O.O.O.O.O.O.O.O.O.O.O.",
"O.O.O.O.O.O.O.O.O.O.O.O.O.O.O.O.O.O.O.O.O.O.O.O.O.X.j ; . } o.O.O.O.O.O.O.O.O.O.O.O.O.O.O.O.O.O.O.O.O.O.O.O.O.O.O.O.O.O.O.O.O.O.",
"O.O.O.O.O.O.O.O.O.O.O.O.O.O.O.O.O.O.O.O.O.O.O.O.O.O.g   X | O.O.O.O.O.O.O.O.O.O.O.O.O.O.O.O.O.O.O.O.O.O.O.O.O.O.O.O.O.O.O.O.O.O.",
"O.O.O.O.O.o.[ ) ) ) ) } O.O.O.O.O.O.O.O.O.O.O.O.o.[ 3 z 8 j | O.O.O.O.O.O.O.O.O.O.O.O.O.O.O.O.O.O.O.O.O.O.O.O.O.O.O.O.O.O.O.O.O.",
"O.O.O.O...| * : : : : a | X.O.O.O.O.O.O.O.O.O...| 1 V E T 7 u  .o.O.O.O.O.O.O.O.O.O.O.O.O.O.O.O.O.O.O.O. .| | | | | | | ..O.O.O.",
"O.O.O.O.' . C P L L P N o } O.O.O.O.O.O.O.o.o.' + G E E E Q n #  .o.o.O.O.O.O.O.O.O.O.O.O.O.O.O.O.o.o...% O O O O O O O ) o.O.O.",
"O.O.o.f 5 G T V > > C P C 1 ) O.O.O.O.O.o.g @ 5 J T E E ! ! W S & @ } O.O.O.O.O.O.O.O.O.O.O.O.O.o.g @ % B J I I I I I I w t | O.",
"O...) 9 V T V 5 g g 5 V T < f O.O.O.O...) w z V E Q Q Q ! ! ! W m b s [ o.O.O.O.O.O.O.O.O.O.o.' ) w b m R ! ! ! I m Z Z 6   } O.",
"O.| . H P H , g O.O.g < H > f O.O.O.X.}   V L L Y R R R R R R R R R 6 #  .o.O.O.O.O.O.O..... .= : U ! ! ! W R R 9 X X X X X } O.",
"O.| . H V ; [ ..O.O...) ; ; f O.O.O.) X   . ; ; ; ; ; ; ; ; ; ; ; ; .   # | O.O.O.O.O.O.f X o S W ! ! ! Q m ; ; )  . . . . .X.O.",
"O.| . H N   } O.O.O.O.[ . x w ) ..) 5 N N N N N B B B B B B B B B Z Z B n u f f f f f f w B Z W ! ! ! Q n k ' '  .O.O.O.O.O.O.O.",
"O.| . H V : ) | | o.O.[ . H N X [ 3 V T T T T E Q Q Q Q Q Q Q Q ! ! ! ! Q 8 > > > > > > J ! ! ! ! ! R G = ' O.O.O.O.O.O.O.O.O.O.",
"O.| . H T L >   % X.O.[ . G N   . C T T T E E Q ! ! ! ! ! ! ! ! ! ! ! ! ! Q W W W W W W ! ! ! ! ! Q Z O | O.O.O.O.O.O.O.O.O.O.O.",
"O...[ 1 N T G V c u } ..' 1 : ; V P T T E E E Q ! ! ! ! ! ! ! ! ! ! ~ ^ ^ ^ ~ ! ! ! ! ^ ~ ! ! ! Q n k [ X.O.O.O.O.O.O.O.O.O.O.O.",
"O.O.o.g 5 C C L H 6 h | X.% ; l P T T T E E E Q ! ! ! ! ! ! ! ! ! ! ~ ^ / / ^ ~ ~ ~ ~ ^ ~ ! ! R A 3 ) O.O.O.O.O.O.O.O.O.O.O.O.O.",
"O.O.O.O.)   o l P P l t  .% l T T T T T E E E Q ! ! ! ! ! ! ! ! ! ! ! ~ / / / / / / ^ ! ! ! Q G . } O.O.O.O.O.O.O.O.O.O.O.O.O.O.",
"O.O.O.O...|  .j 6 P L v %   z T T T T T E E E E Q ! ! ! ! ! ! ! ! ! ! ! ~ ~ ~ ~ ~ ~ ! ! ! Q E G   | O.O.O.O.O.O.O.O.O.O.O.O.O.O.",
"O.O.O.O.O.O.O.| h z H H z ; z T T T T T E E E E E ! ! ! ! ! ! ! ! ! ! ! ! ! ! ! ! ! ! ! Q E A w g  .O.O.O.O.O.O.O.O.O.O.O.O.O.O.",
"O.O.O.O.O.O.O.O. .t c L P > z T T T T T E E E E E Q ! ! ! ! ! ! ! ! ! ! ! ! ! ! ! ! ! Q E K 2 f o.O.O.O.O.O.O.O.O.O.O.O.O.O.O.O.",
"O.O.O.O.O.O.O.O.O.X.y 7 P > l T T T T T T E E E E E Q ! ! ! ! ! ! ! ! ! ! ! ! ! ! ! Q E Y : ' o.O.O.O.O.O.O.O.O.O.O.O.O.O.O.O.O.",
"O.O.O.O.O.O.O.O...f w G P > ; z P T T T T T E E E E Q Q Q ! ! ! ! ! ! ! ! ! ! Q Q Q Q J 9 ) ..O.O.O.O.O.O.O.O.O.O.O.O.O.O.O.O.O.",
"O.O.O.O.O.O.O.O. .X N P V 3 t & V P T T T T T E E E E E E Q ! ! ! ! ! ! ! ! Q E E E K q y ..O.O.O.O.O.O.O.O.O.O.O.O.O.O.O.O.O.O.",
"O.O.O.O.O.O.O.O. .$ N V o | O.| O G T T T T T T T E E E E E E E E E E E E E E E E Y > f o.O.O.O.O.O.O.O.O.O.O.O.O.O.O.O.O.O.O.O.",
"O.O.O.O.O.O.O.O.o.| s 3 | X.O.X.} 1 V T T T T T T T T E E E E E E E E E E E E A > > )  .O.O.O.O.O.O.O.O.O.O.O.O.O.O.O.O.O.O.O.O.",
"O.O.O.O.O.O.O.O.O.O.' ) o.O.O.O.o.g w V V L T T T T T T E E E E E E E E T G V 9 y y | O.O.O.O.O.O.O.O.O.O.O.O.O.O.O.O.O.O.O.O.O.",
"O.O.O.O.O.O.O.O.O.O.O.O.O.O.O.O.O.O.g   . V P P P P P P P T P P T T T T L :   f O.O.O.O.O.O.O.O.O.O.O.O.O.O.O.O.O.O.O.O.O.O.O.O.",
"O.O.O.O.O.O.O.O.O.O.O.O.O.O.O.O.O.O. .| } 3 > > > : : : : : : : : > > > , ' |  .O.O.O.O.O.O.O.O.O.O.O.O.O.O.O.O.O.O.O.O.O.O.O.O.",
"O.O.O.O.O.O.O.O.O.O.O.O.O.O.O.O.O.O.O.O.o.' g t   6 l l l l l l l ; @ g g ..O.O.O.O.O.O.O.O.O.O.O.O.O.O.O.O.O.O.O.O.O.O.O.O.O.O.",
"O.O.O.O.O.O.O.O.O.O.O.O.O.O.O.O.O.O.O.O.O.O...j > H T T T T T T T z u  .O.O.O.O.O.O.O.O.O.O.O.O.O.O.O.O.O.O.O.O.O.O.O.O.O.O.O.O.",
"O.O.O.O.O.O.O.O.O.O.O.O.O.O.O.O.O.O.O.O.O.o.g 7 P T T T T T T T T T n y X.O.O.O.O.O.O.O.O.O.O.O.O.O.O.O.O.O.O.O.O.O.O.O.O.O.O.O.",
"O.O.O.O.O.O.O.O.O.O.O.O.O.O.O.O.O.O.O.O.o.g 9 K T T T T E E E E E E Y c t  .O.O.O.O.O.O.O.O.O.O.O.O.O.O.O.O.O.O.O.O.O.O.O.O.O.O.",
"O.O.O.O.O.O.O.O.O.O.O.O.O.O.O.O.O.O.O. .) 9 G T E T E E Q Q Q Q Q Q Q U z h | O.O.O.O.O.O.O.O.O.O.O.O.O.O.O.O.O.O.O.O.O.O.O.O.O.",
"O.O.O.O.O.O.O.O.O.O.O.O.O.O.O.O.O.O.O.[ . V L L Y Y Y Y R R R R R R R R K : ) O.O.O.O.O.O.O.O.O.O.O.O.O.O.O.O.O.O.O.O.O.O.O.O.O.",
"O.O.O.O.O.O.O.O.O.O.O.O.O.O.O.O.O.O.O.[   ; ; ; ; ; ; ; ; ; ; ; ; ; ; ; ;   ) O.O.O.O.O.O.O.O.O.O.O.O.O.O.O.O.O.O.O.O.O.O.O.O.O.",
"O.O.O.O.O.O.O.O.O.O.O.O.O.O.O.O.O.O.O. .) ) ) ) ) ) ) ) ) ) ) ) ) ) ) ) ) ) | O.O.O.O.O.O.O.O.O.O.O.O.O.O.O.O.O.O.O.O.O.O.O.O.O.",
"O.O.O.O.O.O.O.O.O.O.O.O.O.O.O.O.O.O.O.O.O.O.O.O.O.O.O.O.O.O.O.O.O.O.O.O.O.O.O.O.O.O.O.O.O.O.O.O.O.O.O.O.O.O.O.O.O.O.O.O.O.O.O.O.",
"O.O.O.O.O.O.O.O.O.O.O.O.O.O.O.O.O.O.O.O.O.O.O.O.O.O.O.O.O.O.O.O.O.O.O.O.O.O.O.O.O.O.O.O.O.O.O.O.O.O.O.O.O.O.O.O.O.O.O.O.O.O.O.O.",
"O.O.O.O.O.O.O.O.O.O.O.O.O.O.O.O.O.O.O.O.O.O.O.O.O.O.O.O.O.O.O.O.O.O.O.O.O.O.O.O.O.O.O.O.O.O.O.O.O.O.O.O.O.O.O.O.O.O.O.O.O.O.O.O.",
"O.O.O.O.O.O.O.O.O.O.O.O.O.O.O.O.O.O.O.O.O.O.O.O.O.O.O.O.O.O.O.O.O.O.O.O.O.O.O.O.O.O.O.O.O.O.O.O.O.O.O.O.O.O.O.O.O.O.O.O.O.O.O.O.",
"O.O.O.O.O.O.O.O.O.O.O.O.O.O.O.O.O.O.O.O.O.O.O.O.O.O.O.O.O.O.O.O.O.O.O.O.O.O.O.O.O.O.O.O.O.O.O.O.O.O.O.O.O.O.O.O.O.O.O.O.O.O.O.O.",
"O.O.O.O.O.O.O.O.O.O.O.O.O.O.O.O.O.O.O.O.O.O.O.O.O.O.O.O.O.O.O.O.O.O.O.O.O.O.O.O.O.O.O.O.O.O.O.O.O.O.O.O.O.O.O.O.O.O.O.O.O.O.O.O.",
"O.O.O.O.O.O.O.O.O.O.O.O.O.O.O.O.O.O.O.O.O.O.O.O.O.O.O.O.O.O.O.O.O.O.O.O.O.O.O.O.O.O.O.O.O.O.O.O.O.O.O.O.O.O.O.O.O.O.O.O.O.O.O.O.",
"O.O.O.O.O.O.O.O.O.O.O.O.O.O.O.O.O.O.O.O.O.O.O.O.O.O.O.O.O.O.O.O.O.O.O.O.O.O.O.O.O.O.O.O.O.O.O.O.O.O.O.O.O.O.O.O.O.O.O.O.O.O.O.O.",
"O.O.O.O.O.O.O.O.O.O.O.O.O.O.O.O.O.O.O.O.O.O.O.O.O.O.O.O.O.O.O.O.O.O.O.O.O.O.O.O.O.O.O.O.O.O.O.O.O.O.O.O.O.O.O.O.O.O.O.O.O.O.O.O.",
"O.O.O.O.O.O.O.O.O.O.O.O.O.O.O.O.O.O.O.O.O.O.O.O.O.O.O.O.O.O.O.O.O.O.O.O.O.O.O.O.O.O.O.O.O.O.O.O.O.O.O.O.O.O.O.O.O.O.O.O.O.O.O.O.",
"O.O.O.O.O.O.O.O.O.O.O.O.O.O.O.O.O.O.O.O.O.O.O.O.O.O.O.O.O.O.O.O.O.O.O.O.O.O.O.O.O.O.O.O.O.O.O.O.O.O.O.O.O.O.O.O.O.O.O.O.O.O.O.O.",
"O.O.O.O.O.O.O.O.O.O.O.O.O.O.O.O.O.O.O.O.O.O.O.O.O.O.O.O.O.O.O.O.O.O.O.O.O.O.O.O.O.O.O.O.O.O.O.O.O.O.O.O.O.O.O.O.O.O.O.O.O.O.O.O."
};
