/* XPM */
static const char *exit[] = {
/* columns rows colors chars-per-pixel */
"64 64 141 2 ",
"   c #0E1315",
".  c #0D1214",
"X  c #0C1113",
"o  c #0D1214",
"O  c #0D1214",
"+  c #0C1113",
"@  c #0D1213",
"#  c #0D1213",
"$  c #0D1214",
"%  c #0C1113",
"&  c #0C1112",
"*  c #0D1214",
"=  c #0C1112",
"-  c #0C1112",
";  c #0D1113",
":  c #0C1113",
">  c #0C1012",
",  c #0D1213",
"<  c #0B1011",
"1  c #0D1213",
"2  c #0B1011",
"3  c #0B0F10",
"4  c #0C1011",
"5  c #0B0F10",
"6  c #0B0F10",
"7  c #0C1011",
"8  c #0B0F10",
"9  c #0C1011",
"0  c #0D1113",
"q  c #0B0F11",
"w  c #0C1112",
"e  c #0A0E10",
"r  c #0B0F10",
"t  c #0C1011",
"y  c #0A0E10",
"u  c #0A0E0F",
"i  c #0A0E10",
"p  c #0B0E0F",
"a  c #090C0D",
"s  c #0B0E0F",
"d  c #0B0F11",
"f  c #0A0D0E",
"g  c #0B0F0F",
"h  c #0A0E0F",
"j  c #0A0E0F",
"k  c #0A0D0F",
"l  c #0B0E10",
"z  c #090D0E",
"x  c #0D1112",
"c  c #0B0E10",
"v  c #0A0E0F",
"b  c #0A0E0F",
"n  c #0A0D0F",
"m  c #0B0F10",
"M  c #0A0D0E",
"N  c #0A0D0F",
"B  c #0A0E0F",
"V  c #0C0F10",
"C  c #0A0E0F",
"Z  c #0A0E0F",
"A  c #0A0D0E",
"S  c #0C1011",
"D  c #0A0D0F",
"F  c #0B0E0F",
"G  c #090D0E",
"H  c #0B0E0F",
"J  c #0A0D0F",
"K  c #0B0E0F",
"L  c #090D0F",
"P  c #080B0C",
"I  c #090D0E",
"U  c #090D0E",
"Y  c #090C0E",
"T  c #090D0E",
"R  c #090D0E",
"E  c #090C0D",
"W  c #080C0D",
"Q  c #090C0D",
"!  c #090D0E",
"~  c #090C0D",
"^  c #0A0C0E",
"/  c #0B0F10",
"(  c #090C0D",
")  c #0A0D0E",
"_  c #090D0E",
"`  c #090C0D",
"'  c #090C0D",
"]  c #0C0F10",
"[  c #0B0E0F",
"{  c #080B0D",
"}  c #080B0C",
"|  c #0D1112",
" . c #0D1113",
".. c #080B0C",
"X. c #090C0D",
"o. c #0E1213",
"O. c #070A0B",
"+. c #090B0C",
"@. c #0A0E0F",
"#. c #0D1113",
"$. c #090C0E",
"%. c #070A0B",
"&. c #0A0C0E",
"*. c #0B0E10",
"=. c #0A0D0E",
"-. c #0A0D0E",
";. c #090D0E",
":. c #0A0E0F",
">. c #090C0D",
",. c #090B0C",
"<. c #090C0E",
"1. c #080A0B",
"2. c #0C0F10",
"3. c #0B0E0F",
"4. c #0D1012",
"5. c #080A0C",
"6. c #07090B",
"7. c #090C0E",
"8. c #080B0C",
"9. c #090C0E",
"0. c #080A0B",
"q. c #0A0D0E",
"w. c #080A0B",
"e. c #070909",
"r. c #090B0C",
"t. c #0A0D0E",
"y. c #060708",
"u. c #0A0D0E",
"i. c #0A0D0E",
"p. c #0B0D0E",
"a. c #0C0F10",
"s. c #0A0C0D",
"d. c #060707",
"f. c #030304",
"g. c #070809",
"h. c #060607",
"j. c #040404",
"k. c #080808",
"l. c #020202",
"z. c None",
"x. c #040506",
/* pixels */
"z.z.z.z.z.z.z.z.z.z.z.z.z.z.z.z.z.z.z.z.z.z.z.z.z.z.z.z.z.z.z.z.z.z.z.z.z.z.z.z.z.z.z.z.z.z.z.z.z.z.z.z.z.z.z.z.z.z.z.z.z.z.z.z.",
"z.z.z.z.z.z.z.z.z.z.z.z.z.z.z.z.z.z.z.z.z.z.z.z.z.z.z.z.z.z.z.z.z.z.z.z.z.z.z.z.z.z.z.z.z.z.z.z.z.z.z.z.z.z.z.z.z.z.z.z.z.z.z.z.",
"z.z.z.z.z.z.z.z.z.z.z.z.z.z.z.z.z.z.z.z.z.z.z.z.z.z.z.z.z.z.z.z.z.z.z.z.z.z.z.z.z.z.z.z.z.z.z.z.z.z.z.z.z.z.z.z.z.z.z.z.z.z.z.z.",
"z.z.z.z.z.z.z.z.z.z.z.z.z.z.z.z.z.z.z.z.z.z.z.z.z.z.z.z.z.z.z.z.z.z.z.z.z.z.z.z.z.z.z.z.z.z.z.z.z.z.z.z.z.z.z.z.z.z.z.z.z.z.z.z.",
"z.z.z.z.z.z.z.z.z.z.z.z.z.z.z.z.z.z.z.z.z.z.z.z.z.z.z.z.z.z.z.l.l.z.z.z.z.z.z.z.z.z.z.z.z.z.z.z.z.z.z.z.z.z.z.z.z.z.z.z.z.z.z.z.",
"z.z.z.z.z.z.z.z.z.z.z.z.z.z.z.z.z.z.z.z.z.z.z.z.z.z.z.z.z.z.j.5 8 l.z.z.z.z.z.z.z.z.z.z.z.z.z.z.z.z.z.z.z.z.z.z.z.z.z.z.z.z.z.z.",
"z.z.z.z.z.z.z.z.z.z.z.z.z.z.z.z.z.z.z.z.z.z.z.z.z.z.z.z.z.z.g.= ; k.z.z.z.z.z.z.z.z.z.z.z.z.z.z.z.z.z.z.z.z.z.z.z.z.z.z.z.z.z.z.",
"z.z.z.z.z.z.z.z.z.z.z.z.z.z.z.z.z.z.z.z.z.z.z.z.z.z.z.z.z.z.y.= - d.z.z.z.z.z.z.z.z.z.z.z.z.z.z.z.z.z.z.z.z.z.z.z.z.z.z.z.z.z.z.",
"z.z.z.z.z.z.z.z.z.z.z.z.z.z.z.z.z.z.z.z.z.z.z.z.z.z.z.z.z.z.a . o a z.z.z.z.z.z.z.z.z.z.z.z.z.z.z.z.z.z.z.z.z.z.z.z.z.z.z.z.z.z.",
"z.z.z.z.z.z.z.z.z.z.z.z.z.z.z.z.z.z.z.z.z.z.z.z.z.z.z.z.z.z.z o o h z.z.z.z.z.z.z.z.z.z.z.z.z.z.z.z.z.z.z.z.z.z.z.z.z.z.z.z.z.z.",
"z.z.z.z.z.z.z.z.z.z.z.z.z.z.z.z.z.z.z.z.z.z.z.z.z.z.z.z.z.g.} & = O.f.z.z.z.z.z.z.z.z.z.z.z.z.z.z.z.z.z.z.z.z.z.z.z.z.z.z.z.z.z.",
"z.z.z.z.z.z.z.z.z.z.z.z.z.z.z.z.z.z.z.z.z.z.z.z.z.z.z.z.z.G + . . + H z.z.z.z.z.z.z.z.z.z.z.z.z.z.z.z.z.z.z.z.z.z.z.z.z.z.z.z.z.",
"z.z.z.z.z.z.z.z.z.z.z.z.z.z.z.z.z.z.z.z.z.z.z.z.z.z.z.z.~ &         & P l.z.z.z.z.z.z.z.z.z.z.z.z.z.z.z.z.z.z.z.z.z.z.z.z.z.z.z.",
"z.z.z.z.z.z.z.z.z.z.z.z.z.z.z.z.z.z.z.z.z.z.z.z.1.A A M =             % v D A ,.z.z.z.z.z.z.z.z.z.z.z.z.z.z.z.z.z.z.z.z.z.z.z.z.",
"z.z.z.z.z.z.z.z.z.z.z.z.z.z.z.z.z.z.z.z.z.z.y.K 4 . . .                 . . . 4 K y.z.z.z.z.z.z.z.z.z.z.z.z.z.z.z.z.z.z.z.z.z.z.",
"z.z.z.z.z.z.z.z.z.z.z.z.z.z.z.z.z.z.z.z.z.g.r O                                 O r g.z.z.z.z.z.z.z.z.z.z.z.z.z.z.z.z.z.z.z.z.z.",
"z.z.z.z.z.z.z.z.z.z.z.z.z.z.z.z.z.z.z.z.k.r O                                     O r k.z.z.z.z.z.z.z.z.z.z.z.z.z.z.z.z.z.z.z.z.",
"z.z.z.z.z.z.z.z.z.z.z.z.z.z.z.z.z.z.z.z.r O                                         X r z.z.z.z.z.z.z.z.z.z.z.z.z.z.z.z.z.z.z.z.",
"z.z.z.z.z.z.z.z.z.z.z.z.z.z.z.z.z.z.z.z.>                                             : l.z.z.z.z.z.z.z.z.z.z.z.z.z.z.z.z.z.z.z.",
"z.z.z.z.z.z.z.z.z.z.z.z.z.z.z.z.z.z.z.z.>                                             : l.z.z.z.z.z.z.z.z.z.z.z.z.z.z.z.z.z.z.z.",
"z.z.z.z.z.z.z.z.z.z.z.z.z.z.z.z.z.z.z.z.>                                             : l.z.z.z.z.z.z.z.z.z.z.z.z.z.z.z.z.z.z.z.",
"z.z.z.z.z.z.z.z.z.z.z.z.z.z.z.z.z.z.z.z.>                                             : l.z.z.z.z.z.z.z.z.z.z.z.z.z.z.z.z.z.z.z.",
"z.z.z.z.z.z.z.z.z.z.z.z.z.z.z.z.z.z.z.z.<                                             > l.z.z.z.z.z.z.z.z.z.z.z.z.z.z.z.z.z.z.z.",
"z.z.z.z.z.z.z.z.z.z.z.z.h.l.z.z.z.z.z.z.( =                                         = ~ z.z.z.z.z.z.z.z.z.z.z.z.z.z.z.z.z.z.z.z.",
"z.z.z.z.z.z.z.z.z.z.z.p.5 %.z.z.z.z.z.z.z.` =                                     = ' z.z.z.z.z.z.z.z.z.z.z.z.z.z.z.z.z.z.z.z.z.",
"z.z.z.z.z.z.z.z.z.z.z.O.= n z.z.z.z.z.z.z.z.) : #                             # : ` z.z.z.z.z.z.z.z.f.-.j.z.z.z.z.z.z.z.z.z.z.z.",
"z.z.z.z.z.z.z.z.z.z.z.i X 4 g.z.z.z.z.z.z.z.l.j.B > > O                 O > > C l.z.z.z.z.z.z.z.z.z.X.: 8.z.z.z.z.z.z.z.z.z.z.z.",
"z.z.z.z.z.z.z.z.z.5.r q % 3 e W z.z.z.z.z.z.z.z.z.z.f.-                 - h.z.k.{ y.z.z.z.z.z.z.z.l.r + n z.z.z.z.z.z.z.z.z.z.z.",
"z.z.z.z.z.z.z.z.q.4 .         - ..z.z.z.z.z.z.z.z.z.f.-                 - h.z.M & q d.z.z.z.z.z.z.j.q + f z.z.z.z.z.z.z.z.z.z.z.",
"z.z.z.z.z.z.z.g.3 .             ; 1.z.z.z.z.z.z.z.z.f.-                 - k.E +   o q k.z.z.z.l.a : ; O : : v l.z.z.z.z.z.z.z.z.",
"z.z.z.z.z.z.z.y.&               O { z.z.z.z.k.C >.l.P %                 & Q i       - f.z.z.j.u @           # x k.z.z.z.z.z.z.z.",
"z.z.z.z.z.z.z.y.&               O { z.z.z.z.u @ > O.=                     - z O   . 2 h.z.z.~ @               # O.z.z.z.z.z.z.z.",
"z.z.z.z.z.z.z.g.6 .             : 4.z.z.z.v @     > %                     = y.>   # :.z.z.z.P o               O } z.z.z.z.z.z.z.",
"z.z.z.z.z.z.z.z.e.6 .         ; %.z.z.z.~ &       o o                     O : @   # 3.z.z.z.T o               O } z.z.z.z.z.z.z.",
"z.z.z.z.z.z.z.z.z.e.5       ; %.z.z.z.z.S o               # 7 7 7 3 @             # 3.z.z.z.w.5 .           o q p.z.z.z.z.z.z.z.",
"z.z.z.z.z.z.z.z.z.j.e       > 0.z.g.f 6.p.q o   . < %   O e l.z.z.j.8 O   $ < #   # 3.z.1.a h.e.q o       O e p.z.z.z.z.z.z.z.z.",
"z.z.z.z.z.z.z.z.z.W X       . q z.6.; P z.{ ;   % z %   ; O.< > > 2 %.-   - g.>   # 3.k.i & P l.{ =       - O.z.z.z.z.z.z.z.z.z.",
"z.z.z.z.z.z.z.z.z.P o         5 z.5 o - >.>       .     ; k .     o n -   & W ;   # >.a @   % G q           e z.z.z.z.z.z.z.z.z.",
"z.z.z.z.z.z.z.z.z.P o         5 n @   . - O             ; <         < -   . o .   # ~ +       - 5           e z.z.z.z.z.z.z.z.z.",
"z.z.z.z.z.z.z.z.z.P o         8 q                       ; >   # #   < -           # ( %       ; 5           e z.z.z.z.z.z.z.z.z.",
"z.z.z.z.z.z.z.z.z.P o         5 Q &   o 3 %             ; >   i i   < -           @ R r O   & { 8           e z.z.z.z.z.z.z.z.z.",
"z.z.z.z.z.z.z.z.z.P o         5 z.<   O O.:             ; <   u a   < -             O O .   - z.8           e z.z.z.z.z.z.z.z.z.",
"z.z.z.z.z.z.z.z.0.z .         4 ,.:   O G ;             % =   < <   = +                     - z.8           e z.z.z.z.z.z.z.z.z.",
"z.z.z.z.z.z.z.z.3 O           o O .     O .                                                 ; K =           e z.z.z.z.z.z.z.z.z.",
"z.z.z.z.z.z.z.z.<               & @                           . .                           ; e             = X.z.z.z.z.z.z.z.z.",
"z.z.z.z.z.z.z.z.<               k <                         O r e O                         - q             . A z.z.z.z.z.z.z.z.",
"z.z.z.z.z.z.z.z.<               e :                       O r j.g.r o                       o X             . A z.z.z.z.z.z.z.z.",
"z.z.z.z.z.z.z.z.<               o .                       < j.z.z.h.>                                       . A z.z.z.z.z.z.z.z.",
"z.z.z.z.z.z.z.z.<                                         2 z.z.z.z.<                                       . A z.z.z.z.z.z.z.z.",
"z.z.z.z.z.z.f.f =                                         = e e e e =                                       . 4 k f.z.z.z.z.z.z.",
"z.z.z.z.z.z.G @                                                                                                 @ G z.z.z.z.z.z.",
"z.z.z.z.z.k.:                                                                                                     : k.z.z.z.z.z.",
"z.z.z.z.z.k.4 # * * * * * * * * * * * * * * * * * * * * * * * * * * * * * * * * * * * * * * * * * * * * * * * * # 4 l.z.z.z.z.z.",
"z.z.z.z.z.z.e.8.8.8.8.8.8.8.8.8.8.8.8.8.8.8.8.8.8.8.8.8.8.8.8.8.8.8.8.8.8.8.8.8.8.8.8.8.8.8.8.8.8.8.8.8.8.8.8.8.8.e.z.z.z.z.z.z.",
"z.z.z.z.z.z.z.z.z.z.z.z.z.z.z.z.z.z.z.z.z.z.z.z.z.z.z.z.z.z.z.z.z.z.z.z.z.z.z.z.z.z.z.z.z.z.z.z.z.z.z.z.z.z.z.z.z.z.z.z.z.z.z.z.",
"z.z.z.z.z.z.z.z.z.z.z.z.z.z.z.z.z.z.z.z.z.z.z.z.z.z.z.z.z.z.z.z.z.z.z.z.z.z.z.z.z.z.z.z.z.z.z.z.z.z.z.z.z.z.z.z.z.z.z.z.z.z.z.z.",
"z.z.z.z.z.z.z.z.z.z.z.z.z.z.z.z.z.z.z.z.z.z.z.z.z.z.z.z.z.z.z.z.z.z.z.z.z.z.z.z.z.z.z.z.z.z.z.z.z.z.z.z.z.z.z.z.z.z.z.z.z.z.z.z.",
"z.z.z.z.z.z.z.z.z.z.z.z.z.z.z.z.z.z.z.z.z.z.z.z.z.z.z.z.z.z.z.z.z.z.z.z.z.z.z.z.z.z.z.z.z.z.z.z.z.z.z.z.z.z.z.z.z.z.z.z.z.z.z.z.",
"z.z.z.z.z.z.z.z.z.z.z.z.z.z.z.z.z.z.z.z.z.z.z.z.z.z.z.z.z.z.z.z.z.z.z.z.z.z.z.z.z.z.z.z.z.z.z.z.z.z.z.z.z.z.z.z.z.z.z.z.z.z.z.z.",
"z.z.z.z.z.z.z.z.z.z.z.z.z.z.z.z.z.z.z.z.z.z.z.z.z.z.z.z.z.z.z.z.z.z.z.z.z.z.z.z.z.z.z.z.z.z.z.z.z.z.z.z.z.z.z.z.z.z.z.z.z.z.z.z.",
"z.z.z.z.z.z.z.z.z.z.z.z.z.z.z.z.z.z.z.z.z.z.z.z.z.z.z.z.z.z.z.z.z.z.z.z.z.z.z.z.z.z.z.z.z.z.z.z.z.z.z.z.z.z.z.z.z.z.z.z.z.z.z.z.",
"z.z.z.z.z.z.z.z.z.z.z.z.z.z.z.z.z.z.z.z.z.z.z.z.z.z.z.z.z.z.z.z.z.z.z.z.z.z.z.z.z.z.z.z.z.z.z.z.z.z.z.z.z.z.z.z.z.z.z.z.z.z.z.z.",
"z.z.z.z.z.z.z.z.z.z.z.z.z.z.z.z.z.z.z.z.z.z.z.z.z.z.z.z.z.z.z.z.z.z.z.z.z.z.z.z.z.z.z.z.z.z.z.z.z.z.z.z.z.z.z.z.z.z.z.z.z.z.z.z.",
"z.z.z.z.z.z.z.z.z.z.z.z.z.z.z.z.z.z.z.z.z.z.z.z.z.z.z.z.z.z.z.z.z.z.z.z.z.z.z.z.z.z.z.z.z.z.z.z.z.z.z.z.z.z.z.z.z.z.z.z.z.z.z.z."
};
