/* XPM */
static const char *floor[] = {
/* columns rows colors chars-per-pixel */
"64 64 162 2 ",
"   c #934D33",
".  c #964F34",
"X  c #975035",
"o  c #9A5236",
"O  c #9C5337",
"+  c #9B5437",
"@  c #9D5437",
"#  c #9E5638",
"$  c #A05738",
"%  c #A25939",
"&  c #A45B3A",
"*  c #A65C3B",
"=  c #A75D3C",
"-  c #A85D3B",
";  c #A95F3C",
":  c #AB603D",
">  c #AD623E",
",  c #AF643F",
"<  c #B0633F",
"1  c #B0643F",
"2  c #AF6340",
"3  c #AF6440",
"4  c #B26641",
"5  c #B46742",
"6  c #B36842",
"7  c #B56943",
"8  c #B76A44",
"9  c #B86B44",
"0  c #BA6D45",
"q  c #BC6F46",
"w  c #BE7047",
"e  c #BF7148",
"r  c #C07249",
"t  c #C2744A",
"y  c #C4764B",
"u  c #C3764C",
"i  c #C4774C",
"p  c #C6794E",
"a  c #C77C4F",
"s  c #C87B4F",
"d  c #C87C4F",
"f  c #C77C50",
"g  c #C97E51",
"h  c #CB8053",
"j  c #CC8153",
"k  c #CD8354",
"l  c #CE8556",
"z  c #D08757",
"x  c #D08857",
"c  c #D08758",
"v  c #D28A59",
"b  c #D48B5A",
"n  c #D38C5B",
"m  c #D48C5B",
"M  c #D58E5C",
"N  c #D7905E",
"B  c #D8915F",
"V  c #D79260",
"C  c #D89361",
"Z  c #D99361",
"A  c #D89360",
"S  c #D99461",
"D  c #D99561",
"F  c #D99460",
"G  c #DA9461",
"H  c #D99462",
"J  c #D99562",
"K  c #DA9562",
"L  c #DA9563",
"P  c #DA9662",
"I  c #DA9663",
"U  c #DB9663",
"Y  c #DB9864",
"T  c #DC9965",
"R  c #DC9864",
"E  c #DC9966",
"W  c #DD9B66",
"Q  c #DD9B67",
"!  c #DC9B66",
"~  c #DD9C67",
"^  c #DE9D67",
"/  c #DE9C67",
"(  c #DE9D68",
")  c #DE9C68",
"_  c #DF9E68",
"`  c #DF9F69",
"'  c #DE9E68",
"]  c #DF9F6A",
"[  c #DFA06A",
"{  c #E0A06A",
"}  c #E0A16A",
"|  c #E0A16B",
" . c #E0A06B",
".. c #E1A26C",
"X. c #E1A36C",
"o. c #E1A46D",
"O. c #E2A56D",
"+. c #E2A56E",
"@. c #E3A66F",
"#. c #E3A76F",
"$. c #E3A66E",
"%. c #E3A770",
"&. c #E4A770",
"*. c #E3A870",
"=. c #E4A870",
"-. c #E4A871",
";. c #E4A971",
":. c #E6AA71",
">. c #E4A972",
",. c #E5A972",
"<. c #E5AA72",
"1. c #E5AB73",
"2. c #E6AB73",
"3. c #E6AB72",
"4. c #E6AC73",
"5. c #E7AC73",
"6. c #E7AD73",
"7. c #E6AC74",
"8. c #E6AD74",
"9. c #E7AD74",
"0. c #E6AD75",
"q. c #E7AD75",
"w. c #E7AE74",
"e. c #E6AE75",
"r. c #E7AE75",
"t. c #E7AF75",
"y. c #E7AE76",
"u. c #E7AF76",
"i. c #E8AC71",
"p. c #E8AC73",
"a. c #E8AD73",
"s. c #E9AD73",
"d. c #E8AE73",
"f. c #E9AE73",
"g. c #EAAE73",
"h. c #E8AD74",
"j. c #E8AE74",
"k. c #E9AE74",
"l. c #E9AF74",
"z. c #E8AE75",
"x. c #E9AE75",
"c. c #E8AF75",
"v. c #E9AF75",
"b. c #EAAF74",
"n. c #EBAF74",
"m. c #EAAF75",
"M. c #E8AE76",
"N. c #E8AF76",
"B. c #E9AF76",
"V. c #E8AF77",
"C. c #E9B075",
"Z. c #EAB075",
"A. c #E8B076",
"S. c #E9B076",
"D. c #E8B077",
"F. c #E9B077",
"G. c #E8B177",
"H. c #E9B177",
"J. c #EAB076",
"K. c #E9B078",
"L. c #E8B178",
"P. c #E9B178",
/* pixels */
"c.V.N.D.K.P.K.H.H.F.F.H.H.H.H.P.H.F.K.P.P.P.P.P.K.G.K.H.S.S.F.S.D.A.A.A.D.D.A.A.D.D.D.G.S.c.v.v.S.F.G.L.L.P.P.P.P.P.P.P.G.D.G.K.",
"c.c.h.c.F.H.S.S.S.l.C.S.S.m.F.H.F.F.H.H.P.P.P.P.F.G.H.H.H.G.D.F.S.z.c.k.N.N.x.x.A.D.D.D.S.B.A.A.A.D.G.G.G.L.P.P.P.L.G.G.D.N.N.F.",
"N.N.k.x.F.F.S.S.S.B.b.b.n.f.v.F.S.N.S.S.P.P.L.S.S.D.G.H.H.F.A.A.F.A.N.v.c.v.v.B.A.D.D.G.G.G.G.H.S.B.D.D.D.G.P.L.G.G.A.S.c.l.B.D.",
"c.N.v.k.S.F.A.B.B.F.J.b.C.S.v.Z.S.D.F.G.P.P.L.F.F.G.G.H.H.H.S.D.D.D.A.A.A.A.V.D.D.D.A.D.H.G.G.H.S.B.D.S.S.D.P.G.G.S.v.g.g.k.S.F.",
"j.c.N.S.S.B.l.b.v.N.F.C.S.H.F.S.F.F.G.F.S.H.L.P.L.G.G.H.H.G.D.D.D.A.N.c.N.c.r.V.N.v.f.v.F.D.D.D.F.A.A.l.k.N.G.D.C.k.B.S.v.c.N.B.",
"N.N.D.D.N.x.f.x.B.B.D.F.H.H.H.H.H.F.G.A.B.F.G.G.F.A.G.F.F.G.G.D.B.c.j.g.v.l.z.N.V.N.c.N.A.A.D.D.A.N.N.A.S.B.D.N.B.N.V.D.S.N.N.S.",
"D.A.D.D.D.D.S.N.D.A.V.A.S.S.F.G.G.A.A.D.D.D.D.G.F.A.D.S.v.D.G.D.B.B.d.j.l.x.N.V.V.y.V.A.v.c.D.A.v.d.z.A.N.N.D.D.A.D.N.A.N.N.N.N.",
"A.V.N.V.A.N.A.A.D.A.c.k.v.v.C.c.A.c.k.c.S.A.D.D.A.A.D.A.N.N.A.S.N.N.N.N.N.N.V.V.u.7.u.D.u.M.u.D.c.j.M.V.V.V.D.A.A.V.c.z.r.z.z.c.",
"N.u.c.N.N.A.V.c.N.A.c.k.C.A.B.B.A.N.z.d.d.A.D.D.N.N.D.A.V.N.N.N.N.N.N.u.u.N.N.u.u.u.u.7.e.u.u.A.V.N.N.u.y.u.V.A.u.u.y.u.u.u.M.z.",
"u.u.N.N.u.A.A.N.A.A.V.N.A.A.A.D.D.A.V.N.N.D.D.D.A.V.A.A.N.A.A.c.z.t.u.t.z.z.r.t.u.u.N.=.7.u.u.N.V.V.V.u.w.w.t.y.M.r.u.u.u.u.u.u.",
"N.c.j.B.c.v.A.A.V.A.A.A.A.A.A.D.D.D.A.A.D.D.D.D.N.j.c.A.A.A.N.j.k.M.u.t.j.j.t.t.z.u.u.N.N.A.t.j.c.N.u.t.t.w.w.j.h.z.u.u.j.r.y.r.",
"r.j.b.J.m.Z.S.c.c.c.N.V.B.B.N.S.A.V.c.B.N.N.N.B.M.j.f.j.c.N.N.c.N.t.t.y.M.M.r.w.h.w.r.u.u.N.u.M.M.r.z.j.j.j.c.r.r.y.M.z.a.h.j.a.",
"e.r.z.j.v.B.B.k.g.f.c.N.c.k.d.v.N.N.N.V.c.c.c.x.N.z.w.j.j.h.z.u.M.w.6.w.y.y.w.a.i.5.r.y.j.t.u.t.t.z.z.w.w.r.y.y.u.y.w.h.p.s.a.9.",
"o.@.4.r.z.z.c.x.k.z.z.j.M.c.z.t.u.N.A.A.A.V.N.c.M.t.u.u.M.z.t.u.t.r.z.w.9.w.r.f.i.a.z.t.r.r.j.k.w.y.y.r.r.y.y.y.y.r.q.8.6.9.9.0.",
"M N $.2.8.N.A.N.M.M.t.t.t.u.u.y.q...] <.V.N.t.M.y.y.u.u.N.u.y.t.t.9.0.j.f.h.z.w.j.z.z.y.y.r.z.w.w.r.r.r.r.q.4.8.0.q.e.q.;. .] { ",
"m N R U ~ @.;.r.t.t.r.e.;.@.1.q.0.-.#.4.t.z.3.:.9.r.t.r.=.>.y.r.r.=.;.4.3.j.r.r.r.r.y.r.r.r.r.r.r.q.8.=.-.X.) %.7.2.+.X.J M B M ",
"N C { W A N A ~ / ^ ( ( K B T _ +.4.8.r.z.c.w.h.w.7.#.7...@.r.r.r.0.q.<.,.r.r.r.r.8.7.4.4.<.| _ | 4.X.I I W @.] Q E M M M M C M ",
"m b A G N M A N M M M N A G A M B K I | =.&.%.=.8.q.<.9.r.r.e.r.r.r.r.r.q.e.q.4.#.Q L K K K B M T *.} ` Y H L B N M M J Y M M m ",
"v v b m M M Y D M b m I T B G N M M M N B N N B ^ } } } -.1.4.4.8.8.8.4.4.#.[ ~ N M N K M M M N ! Y N N N M M H I M M C M N M b ",
"v v j c M M M l v m m N M M B M M M K ' P M M N B M M M Z P L J | @.O.Y P A m m m m M S M N Y N M M m c M M m V M m M N m b v v ",
"v v v v l v M m z z z n c M M M M M N B N A M I P M M M m m m B I F M m b m C A m m m b m S A M m m m m M l j n m b k l n l g g ",
"k a k g g v M N M v M M v M N b k v m M M A M M M M M M M Y B A S N m m M Y ! C m m v j v M M m k z c v m v c m v v l v n l k v ",
"j t u k l l g z M N v m N c n M n k k v v M M M b k n M M N M m m m m M M N M m m v z v m M b v b m l k m M M v l v l n n n z j ",
"v l h l l a p k m M v v M l v M M z k g k l M M j g m M M M M m M z h b M M v k m z c M v g g a v M v m M k c v M k u g v k p e ",
"v v v v M n v M M M N N N N z l N N m n m n M M n m N b v M b l l a p h m l m b M M M m g g v v m M v v M v m N v g l l v l j k ",
"v v v n m M v z M z z k n N N N N N N M m m M N N N M v l M N v l l n z M M N M v k m M m m M M m j g l m M M m m m n v v v v v ",
"p i i h n n k v M n x h m M M N m n v v k h v N N M M M N N N M M M M M m M N n k v m M M M v m m z v m m M M k l M v a g v l l ",
"r r r t g j v n m M M M N n n N v j z M M m v z k v M v k M N M M M M M v m N M M N M m v n k b M M m v v M N M m m v g g g u t ",
"r r t r r r p p p g v v v n M M M m n N N N v g g n N b z M m M M l j M N N M l M m M l g l g l M M M v v M n n l p i r r u r r ",
"e r i f d r r y p t t y y p j k v m M M N N M M M M v M M l h k z l m N v M N M M v M M m n v b v k k k k h i u t r r p a i r r ",
"q q w y p r e t i r r r t r r r y a d g k m m N N M v M M v v l v M N N n m m n n n n n v j a s p t t t y t t y y r r u u e e e ",
"q e p t t a r w r y p t p p r r i t r t t i p j z l v M M M M M m M v l l j i i i y i y y t t t p p r y p t p l g r r r e t u e ",
"q q p t r p r w e t p i r y r g g r r r r r r t t t p d g v n n k g p t t t r r y g a t r r a t i u r r r r p p r e e w w r t w ",
"0 q q q 0 q w 0 0 w w r e w r t t r w w r r t p i r r r r i i i t r r t p t r r p g g y r r t r e w e e q 0 0 w w 9 0 9 q 7 0 q ",
"0 0 q 8 > 4 q 0 4 7 q w q 9 9 w w r q w r r t a d g p r r r r r t y r t a t r r r r r r w r r e w 0 e q 4 4 5 0 e w 0 5 5 5 9 q ",
"0 4 0 0 3 4 0 q q 0 q 0 5 4 7 8 9 r r r r q e r t p i r r r r r r r i t r r q q e e r w 9 e 9 4 9 8 q w 0 0 q q e w q 9 8 9 0 q ",
"0 9 7 0 q q 0 8 9 0 4 > 0 w w 0 e w w w 9 6 9 e r r r r r r r r r e r r r q 0 9 w w 9 q e e 8 4 4 q q w e e q 6 7 q 9 5 8 7 0 0 ",
"0 0 9 0 w w 0 0 0 0 > 4 w r r e 0 4 4 w 0 q 9 6 q 8 8 r 9 r t r w 5 8 w r q e r w q 0 w r r r w q w 7 7 q 0 2 - = 6 9 7 0 0 8 8 ",
"0 0 q q 8 q 4 , q w q w e q q q 7 8 > 8 e r e q 7 0 e r e r 0 0 0 , 5 8 e 0 e r w 7 w r q 7 q r w w q q 7 9 0 7 4 6 0 0 7 > * ; ",
"0 9 9 q 9 q 0 8 0 w 7 e 7 4 6 w r w q w r e e r r e 0 0 w r q q q q r r 9 9 e 0 4 5 w w 5 : 4 q 7 7 w q q q q 0 0 0 8 3 = & % % ",
"4 3 > 6 0 q q q w w q e q w w w 0 q e e r 8 8 r w q e e r r r r r r r r e r e 7 5 q e e w q 0 5 9 q w q 8 7 0 8 4 3 * % % & & & ",
"& * = = > > > 4 0 q e e e e w 5 > , 4 w r e e r w 7 6 9 r 0 6 e r e w 0 5 0 w w w w e e e e e w e q 8 > ; = : ; & & & % = ; & & ",
"* = > : = = = - ; > 7 7 7 9 e q q q w e r e 0 r r e 0 4 w e w q 8 w 8 5 , 2 8 e e q 9 0 q e e q 7 4 ; = = * * & - ; : = = = * * ",
"* * > 4 3 ; = ; 4 ; - ; - : 4 4 4 0 e e e e r r e t r r r e e 0 7 w w q 8 w e w w q w w w q 7 > - - ; > 4 : = = : : , , ; = = * ",
"* * * ; : - - ; > > : ; ; ; ; ; ; : > > > 7 0 9 6 0 0 w e e e w w w e w 9 9 6 > > > > > > : ; - - - > 7 4 , ; - ; ; : ; = & = = ",
"= = - - = - - ; ; > > ; ; ; 4 7 , ; ; ; ; ; ; : ; : : > 4 4 0 q q 9 4 3 ; ; ; ; ; ; ; ; ; ; ; > : ; ; : ; ; ; ; = = - - - & - ; ",
"= - ; ; ; - & % : > : : ; : > , : ; : 6 4 : ; ; ; : ; ; ; ; : : : ; = = - ; ; > , ; ; : 5 , > 5 : ; : : - : : % @ * ; = * : ; ; ",
"- - ; ; - * ; - > > > : * ; : ; ; ; > 4 4 > : ; ; : : : : 6 > ; - ; ; 4 > : : : > : : : > > > 1 : % & : - : > & = > ; - : : : : ",
"- - - * & - : > > , > > ; : ; % % ; ; ; : > = # % : > > : , > ; ; ; : 1 > > > > > % & * % > , ; % % ; , , > > > , > > > > > : : ",
"; ; : : : > > : > : ; > > , - & & ; > : > > > * % * , ; > , > ; ; : > > > > > , : % # & ; 1 , > : > 1 < > & ; : > > > , , > ; : ",
"- ; : : > > > > > ; : : > : > > > : ; : > > > > : : 1 : , 4 , ; ; , < < < > ; > < 1 ; > , > & - < 1 > > , > , ; ; > , , > > : : ",
"- - - : : * ; > > > > > > * * ; > > > > > > , : : > 1 4 4 4 4 , > 1 1 1 4 1 , , : ; , 1 , - - > 1 , - * : > , , , > > > : : ; % ",
"* : ; > : * ; > > & % : , > : : > > > : > , , ; - ; , > 1 ; - , , > > > 1 1 , * & * > ; : 1 4 4 1 1 , : : , > > > > : % % ; # X ",
"@ & = > : * : > & % & & , > > > : ; ; : > , , , > > - - > > > , > - > ; > 1 , > > , 1 : - > , , : ; , : : > > = & * % X X o o X ",
"X X O * ; % ; > > > > > > & = > > > > , > & % ; > > > > , , 1 , , , , , 1 , > = ; , , , , , , , = = > ; ; ; % o o o X X @ % o o ",
"o o o o + % * = = = : > > ; : : = > , > > ; = - > , > : : ; , , , > ; , > & * : : , , - : > ; : ; ; = # @ + X X o o X o & # X X ",
"o o o o o o o o o o @ % % & > ; % % % % = > > > , > : * : > > : > : * > , > > , > > > : & # o o o o o o X o % o o O % O o X X X ",
"o o @ O @ o X o X X . . X o # # # o X X o # % ; ; ; : > > > > : > > , , > : : ; $ # # # o o o o o o o o o o # o o O # O o X   . ",
"o o o o o o @ % o o o o o o o o o o o o o o o o o o # & & & * : > ; & & & + o o o X @ @ o o o # & O o O o o o o O o o o o o X o ",
"o O + o o o @ # o o # o o O + o o o o o # % o o o o o o o o o # # @ o o o o o o o $ * # o o o o o o o O o o o O # @ + o + o o o ",
"o o + + + o o o o o O o o O O O O @ + o + # o + + + O o + + O o o o o O o o o o o O O o o o O O O O @ # @ O O O @ + o o o o o o ",
"o o o @ $ @ o o o O o O O O O O O @ + O O O + @ @ @ # @ O @ + O o o O @ o O O o o o O O O O # # % # @ O @ O o o o O @ + o o o o ",
"o o o o # @ O o O # % # @ O @ @ @ # @ O O @ O O + + @ @ O O O O O O O o o o o O O @ # $ @ @ @ @ # @ O O O o o o O O @ @ o o o o ",
"o o o o O O O O @ @ # @ @ O O O @ @ @ O O O O O O O O O O O O O O o o O o o o O O @ @ @ @ @ O @ @ O O O O O O O O @ O O o o o o "
};
