/* XPM */
static const char *player_tmp[] = {
/* columns rows colors chars-per-pixel */
"64 64 157 2 ",
"   c #1C1B1C",
".  c #211C1D",
"X  c #27211D",
"o  c #2B231D",
"O  c #34261F",
"+  c #362A1F",
"@  c #1A1E22",
"#  c #241C21",
"$  c #2A1D25",
"%  c #2F1F2A",
"&  c #331F2C",
"*  c #1C2124",
"=  c #1C242B",
"-  c #1E282D",
";  c #1B2434",
":  c #1E2A34",
">  c #1B263A",
",  c #1C2C3B",
"<  c #1F303E",
"1  c #2F202A",
"2  c #202A2F",
"3  c #35202C",
"4  c #3C212E",
"5  c #212D34",
"6  c #202E3A",
"7  c #362130",
"8  c #3D2232",
"9  c #22313B",
"0  c #41241E",
"q  c #44291C",
"w  c #4B2D18",
"e  c #583317",
"r  c #623816",
"t  c #6C3917",
"y  c #61321E",
"u  c #68361F",
"i  c #6D3A1B",
"p  c #753E17",
"a  c #723C19",
"s  c #442F25",
"d  c #542B20",
"f  c #4F3729",
"g  c #573822",
"h  c #51392B",
"j  c #593D2B",
"k  c #442435",
"l  c #4C2636",
"z  c #512735",
"x  c #542935",
"c  c #5C2C33",
"v  c #683622",
"b  c #6E3922",
"n  c #66302F",
"m  c #6B322E",
"M  c #632E32",
"N  c #673031",
"B  c #6A3131",
"V  c #6F4116",
"C  c #7D4417",
"Z  c #7C401F",
"A  c #7D4121",
"S  c #1B2B43",
"D  c #1D3243",
"F  c #1D344C",
"G  c #1F384C",
"H  c #1E3A53",
"J  c #223443",
"K  c #253843",
"L  c #203649",
"P  c #223A4C",
"I  c #223D53",
"U  c #1F405A",
"Y  c #254155",
"T  c #24435B",
"R  c #224562",
"E  c #264963",
"W  c #294C64",
"Q  c #254B6B",
"!  c #2A4D69",
"~  c #25526F",
"^  c #2C536E",
"/  c #305A6F",
"(  c #254F70",
")  c #265274",
"_  c #2A5573",
"`  c #2C5876",
"'  c #275579",
"]  c #285679",
"[  c #2B5B7D",
"{  c #305A72",
"}  c #2D607C",
"|  c #864D16",
" . c #8D4A1E",
".. c #924F15",
"X. c #954F1D",
"o. c #955515",
"O. c #9C5A14",
"+. c #97501D",
"@. c #A25913",
"#. c #AC6113",
"$. c #2A5D82",
"%. c #2D5F88",
"&. c #2C6184",
"*. c #2E648D",
"=. c #2E688E",
"-. c #30658F",
";. c #376C88",
":. c #2E6691",
">. c #2E6994",
",. c #2E6E9A",
"<. c #306791",
"1. c #326A94",
"2. c #326E9A",
"3. c #33739E",
"4. c #2F77A1",
"5. c #3276A4",
"6. c #337AA7",
"7. c #3879A7",
"8. c #327CAA",
"9. c #397EAC",
"0. c #3D80A5",
"q. c #3380AE",
"w. c #3D82AC",
"e. c #3583B3",
"r. c #3B80B1",
"t. c #3D84B1",
"y. c #3C84B3",
"u. c #3B85B6",
"i. c #3C85B6",
"p. c #3A88B6",
"a. c #3D87B8",
"s. c #3789B9",
"d. c #3B8DBE",
"f. c #408AB4",
"g. c #418DBA",
"h. c #408DBE",
"j. c #428EBF",
"k. c #4392BE",
"l. c #3A8EC0",
"z. c #3E93C2",
"x. c #428FC1",
"c. c #4391C2",
"v. c #4295C4",
"b. c #4495C4",
"n. c #4498C7",
"m. c #4598C7",
"M. c #4698C6",
"N. c #4699C9",
"B. c #479BCA",
"V. c #469CCB",
"C. c #479CCC",
"Z. c #489DCC",
"A. c #489FCD",
"S. c #489ECE",
"D. c #4AA1CF",
"F. c #4BA2D0",
"G. c None",
/* pixels */
"G.G.G.G.G.G.G.G.G.G.G.G.G.G.G.G.G.G.G.G.G.G.G.G.G.G.G.G.G.G.G.G.G.G.G.G.G.G.G.G.G.G.G.G.G.G.G.G.G.G.G.G.G.G.G.G.G.G.G.G.G.G.G.G.",
"G.G.G.G.G.G.G.G.G.G.G.G.G.G.G.G.G.G.G.G.G.G.G.G.G.G.G.G.G.G.G.G.G.G.G.G.G.G.G.G.G.G.G.G.G.G.G.G.G.G.G.G.G.G.G.G.G.G.G.G.G.G.G.G.",
"G.G.G.G.G.G.G.G.G.G.G.G.G.G.G.G.G.G.G.G.G.G.G.G.G.G.G.G.G.G.G.G.G.G.G.G.G.G.G.G.G.G.G.G.G.G.G.G.G.G.G.G.G.G.G.G.G.G.G.G.G.G.G.G.",
"G.G.G.G.G.G.G.G.G.G.G.G.G.G.G.G.G.G.G.G.G.G.G.G.G.G.G.G.G.G.G.G.G.G.G.G.G.G.G.G.G.G.G.G.G.G.G.G.G.G.G.G.G.G.G.G.G.G.G.G.G.G.G.G.",
"G.G.G.G.G.G.G.G.G.G.G.G.G.G.G.G.G.G.G.G.G.G.G.G.G.G.G.G.G.G.G.G.G.G.G.G.G.G.G.G.G.G.G.G.G.G.G.G.G.G.G.G.G.G.G.G.G.G.G.G.G.G.G.G.",
"G.G.G.G.G.G.G.G.G.G.G.G.G.G.G.G.G.G.G.G.G.G.G.G.G.G.G.G.G.G.G.G.G.G.G.G.G.G.G.G.G.G.G.G.G.G.G.G.G.G.G.G.G.G.G.G.G.G.G.G.G.G.G.G.",
"G.G.G.G.G.G.G.G.G.G.G.G.G.G.G.G.G.G.G.G.G.G.G.G.G.G.G.G.G.G.G.G.G.G.G.G.G.G.G.G.G.G.G.G.G.G.G.G.G.G.G.G.G.G.G.G.G.G.G.G.G.G.G.G.",
"G.G.G.G.G.G.G.G.G.G.G.G.G.G.G.G.G.G.G.G.G.G.G.G.G.G.G.G.G.G.G.G.G.G.G.G.G.G.G.G.G.G.G.G.G.G.G.G.G.G.G.G.G.G.G.G.G.G.G.G.G.G.G.G.",
"G.G.G.G.G.G.G.G.G.G.G.G.G.G.G.G.G.G.G.G.G.G.G.G.G.G.G.G.G.G.G.G.      G.G.G.G.G.G.G.G.G.G.G.G.G.G.G.G.G.G.G.G.G.G.G.G.G.G.G.G.G.",
"G.G.G.G.G.G.G.G.G.G.G.G.G.G.G.G.G.G.G.G.G.G.G.G.G.G.G.G.G.G.G., T ` &.T G.G.G.G.G.G.G.G.G.G.G.G.G.G.G.G.G.G.G.G.G.G.G.G.G.G.G.G.",
"G.G.G.G.G.G.G.G.G.G.G.G.G.G.G.G.G.G.G.G.G.G.G.G.G.G.G.G.G.G.  , Q *.6.W   G.G.G.G.G.G.G.G.G.G.G.G.G.G.G.G.G.G.G.G.G.G.G.G.G.G.G.",
"G.G.G.G.G.G.G.G.G.G.G.G.G.G.G.G.G.G.G.G.G.G.G.G.G.G.G.G.G.G.  = F Q $.Y   G.G.G.G.G.G.G.G.G.G.G.G.G.G.G.G.G.G.G.G.G.G.G.G.G.G.G.",
"G.G.G.G.G.G.G.G.G.G.G.G.G.G.G.G.G.G.G.G.G.G.G.G.G.G.G.          = H F ;   G.G.G.G.G.G.G.G.G.G.G.G.G.G.G.G.G.G.G.G.G.G.G.G.G.G.G.",
"G.G.G.G.G.G.G.G.G.G.G.G.G.G.G.G.G.G.G.G.G.G.G.G.G.G.W _ ` _ I D , - = G.G.G.G.G.G.G.G.G.G.G.G.G.G.G.G.G.G.G.G.G.G.G.G.G.G.G.G.G.",
"G.G.G.G.G.G.G.G.G.G.G.G.G.G.G.G.G.G.G.G.G.G.G.G.L T 3.i.a.y.*.' R : @ G.G.G.G.G.G.G.G.G.G.G.G.G.G.G.G.G.G.G.G.G.G.G.G.G.G.G.G.G.",
"G.G.G.G.G.G.G.G.G.G.G.G.G.G.G.G.G.G.G.G.G.G.  I 1.r.b.B.C.N.y.5.:.Q - G.G.G.G.G.G.G.G.G.G.G.G.G.G.G.G.G.G.G.G.G.G.G.G.G.G.G.G.G.",
"G.G.G.G.G.G.G.G.G.G.G.G.G.G.G.G.G.G.G.G.G.G.  ^ i.x.N.Z.Z.B.b.u.5.*.6 G.G.G.G.G.G.G.G.G.G.G.G.G.G.G.G.G.G.G.G.G.G.G.G.G.G.G.G.G.",
"G.G.G.G.G.G.G.G.G.G.G.G.G.G.G.G.G.G.G.G.G.G.  9 ^ a.m.Z.Z.M./ Y E -.6   G.G.G.G.G.G.G.G.G.G.G.G.G.G.G.G.G.G.G.G.G.G.G.G.G.G.G.G.",
"G.G.G.G.G.G.G.G.G.G.G.G.G.G.G.G.G.G.G.G.G.  : : J [ g.S.k.;.J : P <.P *   G.G.G.G.G.G.G.G.G.G.G.G.G.G.G.G.G.G.G.G.G.G.G.G.G.G.G.",
"G.G.G.G.G.G.G.G.G.G.G.G.G.G.G.G.G.G.G.G.G.* I T L 5 w.D.0.5 P R ' 3.) <   G.G.G.G.G.G.G.G.G.G.G.G.G.G.G.G.G.G.G.G.G.G.G.G.G.G.G.",
"G.G.G.G.G.G.G.G.G.G.G.G.G.G.G.G.G.G.G.G.G.* Q P J 1.c.Z.k.1.9 T 2.8.>.I   G.G.G.G.G.G.G.G.G.G.G.G.G.G.G.G.G.G.G.G.G.G.G.G.G.G.G.",
"G.G.G.G.G.G.G.G.G.G.G.G.G.G.G.G.G.G.G.G.= I *.Y K g.N.Z.B.g.9 W p.q.>.Y   G.G.G.G.G.G.G.G.G.G.G.G.G.G.G.G.G.G.G.G.G.G.G.G.G.G.G.",
"G.G.G.G.G.G.G.G.G.G.G.G.G.G.G.G.G.G.G.G.: ] 5.[ { m.C.Z.Z.b.W &.d.q.,.T     G.G.G.G.G.G.G.G.G.G.G.G.G.G.G.G.G.G.G.G.G.G.G.G.G.G.",
"G.G.G.G.G.G.G.G.G.G.G.G.G.G.G.G.G.G.G.G.J 2.3.9.t.f.m.C.M.f.3.3.4.6.5.E     G.G.G.G.G.G.G.G.G.G.G.G.G.G.G.G.G.G.G.G.G.G.G.G.G.G.",
"G.G.G.G.G.G.G.G.G.G.G.G.G.G.G.G.G.G.G.G.J <.J 2 5 9 w.S.0.9 : - P 3.5.E         G.G.G.G.G.G.G.G.G.G.G.G.G.G.G.G.G.G.G.G.G.G.G.G.",
"G.G.G.G.G.G.G.G.G.G.G.G.G.G.G.G.G.G.G.G.= K * J ! _ t.b.w.^ ! J * P P : * L P L D G.G.G.G.G.G.G.G.G.G.G.G.G.G.G.G.G.G.G.G.G.G.G.",
"G.G.G.G.G.G.G.G.G.G.G.G.G.G.G.G.G.G.G.G.=     E 5.r.h.c.h.9.3.T       = L ' $.$.~ , G.G.G.G.G.G.G.G.G.G.G.G.G.G.G.G.G.G.G.G.G.G.",
"G.G.G.G.G.G.G.G.G.G.G.G.G.G.G.G.G.G.* D G @   Y 3.j.c.c.c.h.1.I     * P $.3.8.e.6.) < G.G.G.G.G.G.G.G.G.G.G.G.G.G.G.G.G.G.G.G.G.",
"G.G.G.G.G.G.G.G.G.G.G.G.G.G.G.G.G.@ I R T , @ * P 2.1.1.1.1.J *   @ I &.8.e.v.B.b.q.[ P G.G.G.G.G.G.G.G.G.G.G.G.G.G.G.G.G.G.G.G.",
"G.G.G.G.G.G.G.G.G.G.G.G.G.G.G.G.G.* Q [ Q F ; @ * J J J J J *   = Y =.6.e.v.Z.D.A.v.5.E   G.G.G.G.G.G.G.G.G.G.G.G.G.G.G.G.G.G.G.",
"G.G.G.G.G.G.G.G.G.G.G.G.G.G.G.G.G., ] *.] H S ; @           @ : I 1.s.e.r.B.D.F.F.A.p._   G.G.G.G.G.G.G.G.G.G.G.G.G.G.G.G.G.G.G.",
"G.G.G.G.G.G.G.G.G.G.G.G.G.G.G.G.: Q $.*.$.R F S ; @       @ > R <.h.l.e.9.m.D.F.D.D.z.}   G.G.G.G.G.G.G.G.G.G.G.G.G.G.G.G.G.G.G.",
"G.G.G.G.G.G.G.G.G.G.G.G.G.G.G.G.9 *.$.&.$.E U H S ; @   * S R *.r.z.s.,.:.d.V.F.D.A.z.}   G.G.G.G.G.G.G.G.G.G.G.G.G.G.G.G.G.G.G.",
"G.G.G.G.G.G.G.G.G.G.G.G.G.G.G.G.J :.:.&.' T T U H F ; > D H Q <.9.y.9.2.2.v.C.D.D.V.u._   G.G.G.G.G.G.G.G.G.G.G.G.G.G.G.G.G.G.G.",
"G.G.G.G.G.G.G.G.G.G.G.G.G.G.G.G.J >.2.>.$.) U R ) [ ) T G H ) 2.i.i.i.w.t.N.A.D.C.z.5.E   G.G.G.G.G.G.G.G.G.G.G.G.G.G.G.G.G.G.G.",
"G.G.G.G.G.G.G.G.G.G.G.G.G.G.G.G.9 :.5.8.8.,.H ( 7.h.d.$.F S %.y.m.N.V.V.V.A.A.C.v.e.$.P   G.G.G.G.G.G.G.G.G.G.G.G.G.G.G.G.G.G.G.",
"G.G.G.G.G.G.G.G.G.G.G.G.G.G.G.G.6 %.>.5.5.*.H [ a.d.s.&.H S 3.c.n.N.V.V.V.V.V.z.e.,.R ,   G.G.G.G.G.G.G.G.G.G.G.G.G.G.G.G.G.G.G.",
"G.G.G.G.G.G.G.G.G.G.G.G.G.G.G.G.: ( %.>.>.' F [ y.a.e.$.F S *.y.d.d.d.d.d.d.d.q.>.( , @ G.G.G.G.G.G.G.G.G.G.G.G.G.G.G.G.G.G.G.G.",
"G.G.G.G.G.G.G.G.G.G.G.G.G.G.G.G.= F Q [ ' R , I [ &.&.T > ; Q >.5.8.8.e.e.e.6.>.) H = G.G.G.G.G.G.G.G.G.G.G.G.G.G.G.G.G.G.G.G.G.",
"G.G.G.G.G.G.G.G.G.G.G.G.G.G.G.G.G.  D I H D @ . X X o o o o J I Q $.*.>.2.1.$.Q H > @ G.G.G.G.G.G.G.G.G.G.G.G.G.G.G.G.G.G.G.G.G.",
"G.G.G.G.G.G.G.G.G.G.G.G.G.G.G.G.G.G.@ @ @ @   q i C | o.O.o.+ @ * = D I R T I G , @ G.G.G.G.G.G.G.G.G.G.G.G.G.G.G.G.G.G.G.G.G.G.",
"G.G.G.G.G.G.G.G.G.G.G.G.G.G.G.G.G.G.G.G.G.G.  w C ..@.#.#.#.| V r e g j j h f s O   G.G.G.G.G.G.G.G.G.G.G.G.G.G.G.G.G.G.G.G.G.G.",
"G.G.G.G.G.G.G.G.G.G.G.G.G.G.G.G.G.G.G.G.G.G.  q b A  .X.X.X.+. .Z b a p p t y d 0   G.G.G.G.G.G.G.G.G.G.G.G.G.G.G.G.G.G.G.G.G.G.",
"G.G.G.G.G.G.G.G.G.G.G.G.G.G.G.G.G.G.G.G.G.G.  3 z x M m m m m m N c v i i u x l 8   G.G.G.G.G.G.G.G.G.G.G.G.G.G.G.G.G.G.G.G.G.G.",
"G.G.G.G.G.G.G.G.G.G.G.G.G.G.G.G.G.G.G.G.G.G.  3 x c M B m m B B B N m m n n c x k   G.G.G.G.G.G.G.G.G.G.G.G.G.G.G.G.G.G.G.G.G.G.",
"G.G.G.G.G.G.G.G.G.G.G.G.G.G.G.G.G.G.G.G.G.G.  3 l x M N B B B B B B B N N M M x k   G.G.G.G.G.G.G.G.G.G.G.G.G.G.G.G.G.G.G.G.G.G.",
"G.G.G.G.G.G.G.G.G.G.G.G.G.G.G.G.G.G.G.G.G.G.G.$ 4 l x M B B B B B B B N N M c l 8   G.G.G.G.G.G.G.G.G.G.G.G.G.G.G.G.G.G.G.G.G.G.",
"G.G.G.G.G.G.G.G.G.G.G.G.G.G.G.G.G.G.G.G.G.G.G.G.# k k x M M N B B B N N N M z k 7   G.G.G.G.G.G.G.G.G.G.G.G.G.G.G.G.G.G.G.G.G.G.",
"G.G.G.G.G.G.G.G.G.G.G.G.G.G.G.G.G.G.G.G.G.G.G.G.G.# 8 l x x M N N N N N M M l k &   G.G.G.G.G.G.G.G.G.G.G.G.G.G.G.G.G.G.G.G.G.G.",
"G.G.G.G.G.G.G.G.G.G.G.G.G.G.G.G.G.G.G.G.G.G.G.G.G.G.# 3 k k z c M M M M M x k & # G.G.G.G.G.G.G.G.G.G.G.G.G.G.G.G.G.G.G.G.G.G.G.",
"G.G.G.G.G.G.G.G.G.G.G.G.G.G.G.G.G.G.G.G.G.G.G.G.G.G.G.$ & 8 k z c M M M x k 8 $   G.G.G.G.G.G.G.G.G.G.G.G.G.G.G.G.G.G.G.G.G.G.G.",
"G.G.G.G.G.G.G.G.G.G.G.G.G.G.G.G.G.G.G.G.G.G.G.G.G.G.G.G.# 3 8 k z M M x l 8 % # G.G.G.G.G.G.G.G.G.G.G.G.G.G.G.G.G.G.G.G.G.G.G.G.",
"G.G.G.G.G.G.G.G.G.G.G.G.G.G.G.G.G.G.G.G.G.G.G.G.G.G.G.G.G.# 3 k l z z k 8 & . G.G.G.G.G.G.G.G.G.G.G.G.G.G.G.G.G.G.G.G.G.G.G.G.G.",
"G.G.G.G.G.G.G.G.G.G.G.G.G.G.G.G.G.G.G.G.G.G.G.G.G.G.G.G.G.  % 8 k k k 8 % # G.G.G.G.G.G.G.G.G.G.G.G.G.G.G.G.G.G.G.G.G.G.G.G.G.G.",
"G.G.G.G.G.G.G.G.G.G.G.G.G.G.G.G.G.G.G.G.G.G.G.G.G.G.G.G.G.# % 7 8 8 8 % # G.G.G.G.G.G.G.G.G.G.G.G.G.G.G.G.G.G.G.G.G.G.G.G.G.G.G.",
"G.G.G.G.G.G.G.G.G.G.G.G.G.G.G.G.G.G.G.G.G.G.G.G.G.G.      $ 1 3 7 7 1 # G.G.G.G.G.G.G.G.G.G.G.G.G.G.G.G.G.G.G.G.G.G.G.G.G.G.G.G.",
"G.G.G.G.G.G.G.G.G.G.G.G.G.G.G.G.G.G.G.G.G.G.G.G.G.                    G.G.G.G.G.G.G.G.G.G.G.G.G.G.G.G.G.G.G.G.G.G.G.G.G.G.G.G.G.",
"G.G.G.G.G.G.G.G.G.G.G.G.G.G.G.G.G.G.G.G.G.G.G.G.G.G.G.G.G.G.G.G.G.G.G.G.G.G.G.G.G.G.G.G.G.G.G.G.G.G.G.G.G.G.G.G.G.G.G.G.G.G.G.G.",
"G.G.G.G.G.G.G.G.G.G.G.G.G.G.G.G.G.G.G.G.G.G.G.G.G.G.G.G.G.G.G.G.G.G.G.G.G.G.G.G.G.G.G.G.G.G.G.G.G.G.G.G.G.G.G.G.G.G.G.G.G.G.G.G.",
"G.G.G.G.G.G.G.G.G.G.G.G.G.G.G.G.G.G.G.G.G.G.G.G.G.G.G.G.G.G.G.G.G.G.G.G.G.G.G.G.G.G.G.G.G.G.G.G.G.G.G.G.G.G.G.G.G.G.G.G.G.G.G.G.",
"G.G.G.G.G.G.G.G.G.G.G.G.G.G.G.G.G.G.G.G.G.G.G.G.G.G.G.G.G.G.G.G.G.G.G.G.G.G.G.G.G.G.G.G.G.G.G.G.G.G.G.G.G.G.G.G.G.G.G.G.G.G.G.G.",
"G.G.G.G.G.G.G.G.G.G.G.G.G.G.G.G.G.G.G.G.G.G.G.G.G.G.G.G.G.G.G.G.G.G.G.G.G.G.G.G.G.G.G.G.G.G.G.G.G.G.G.G.G.G.G.G.G.G.G.G.G.G.G.G.",
"G.G.G.G.G.G.G.G.G.G.G.G.G.G.G.G.G.G.G.G.G.G.G.G.G.G.G.G.G.G.G.G.G.G.G.G.G.G.G.G.G.G.G.G.G.G.G.G.G.G.G.G.G.G.G.G.G.G.G.G.G.G.G.G.",
"G.G.G.G.G.G.G.G.G.G.G.G.G.G.G.G.G.G.G.G.G.G.G.G.G.G.G.G.G.G.G.G.G.G.G.G.G.G.G.G.G.G.G.G.G.G.G.G.G.G.G.G.G.G.G.G.G.G.G.G.G.G.G.G."
};
